3/images/index/rule3.svg

<svg width="60" height="60" viewBox="0 0 60 60" fill="none" xmlns="http://www.w3.org/2000/svg">
<rect width="60" height="60" fill="#68B738"/>
<path fill-rule="evenodd" clip-rule="evenodd" d="M36.1173 15.0761C36.491 14.9214 36.9211 15.0069 37.2071 15.2929C38.1156 16.2014 39.3038 18.1706 40.2659 21.2108C41.2373 24.2804 42 28.5081 42 34C42 34.5523 41.5523 35 41 35H37.5V44C37.5 44.5523 37.0523 45 36.5 45C35.9477 45 35.5 44.5523 35.5 44V16C35.5 15.5956 35.7436 15.2309 36.1173 15.0761ZM37.5 33H39.9912C39.9053 28.1836 39.2051 24.4875 38.3591 21.8142C38.0807 20.9346 37.7885 20.1715 37.5 19.519V33Z" fill="white"/>
<path fill-rule="evenodd" clip-rule="evenodd" d="M23.5 15C24.0523 15 24.5 15.4477 24.5 16V44C24.5 44.5523 24.0523 45 23.5 45C22.9477 45 22.5 44.5523 22.5 44V16C22.5 15.4477 22.9477 15 23.5 15Z" fill="white"/>
<path fill-rule="evenodd" clip-rule="evenodd" d="M19 15C19.5523 15 20 15.4477 20 16V21.5C20 22.0569 20.192 22.8152 20.7009 23.4166C21.18 23.9828 22.0145 24.5 23.4999 24.5C24.0522 24.5 24.4999 24.9477 24.4999 25.5C24.4999 26.0523 24.0522 26.5 23.4999 26.5C21.4855 26.5 20.07 25.7672 19.1741 24.7084C18.308 23.6848 18 22.4431 18 21.5V16C18 15.4477 18.4477 15 19 15Z" fill="white"/>
<path fill-rule="evenodd" clip-rule="evenodd" d="M28 15C27.4477 15 27 15.4477 27 16V21.5C27 22.0569 26.808 22.8152 26.2991 23.4166C25.82 23.9828 24.9854 24.5 23.4999 24.5C22.9476 24.5 22.5001 24.9477 22.5001 25.5C22.5001 26.0523 22.9476 26.5 23.4999 26.5C25.5144 26.5 26.93 25.7672 27.8259 24.7084C28.692 23.6848 29 22.4431 29 21.5V16C29 15.4477 28.5523 15 28 15Z" fill="white"/>
</svg>

<svg width="60" height="60" fill="none" xmlns="http://www.w3.org/2000/svg"><path fill="#68B738" d="M0 0h60v60H0z"/><path fill-rule="evenodd" clip-rule="evenodd" d="M36.117 15.076a1 1 0 0 1 1.09.217c.909.908 2.097 2.878 3.059 5.918C41.237 24.28 42 28.508 42 34a1 1 0 0 1-1 1h-3.5v9a1 1 0 1 1-2 0V16a1 1 0 0 1 .617-.924ZM37.5 33h2.491c-.086-4.816-.786-8.512-1.632-11.186-.278-.88-.57-1.642-.859-2.295V33ZM23.5 15a1 1 0 0 1 1 1v28a1 1 0 1 1-2 0V16a1 1 0 0 1 1-1Z" fill="#fff"/><path fill-rule="evenodd" clip-rule="evenodd" d="M19 15a1 1 0 0 1 1 1v5.5c0 .557.192 1.315.7 1.917.48.566 1.315 1.083 2.8 1.083a1 1 0 1 1 0 2c-2.015 0-3.43-.733-4.326-1.792A5.068 5.068 0 0 1 18 21.5V16a1 1 0 0 1 1-1Z" fill="#fff"/><path fill-rule="evenodd" clip-rule="evenodd" d="M28 15a1 1 0 0 0-1 1v5.5a3.07 3.07 0 0 1-.7 1.917c-.48.566-1.315 1.083-2.8 1.083a1 1 0 0 0 0 2c2.014 0 3.43-.733 4.326-1.792A5.068 5.068 0 0 0 29 21.5V16a1 1 0 0 0-1-1Z" fill="#fff"/></svg>
